!!!OTL: MIR IST HALT NIE SO WOHL ZU MUTH
!!!ARE: Europa, Mitteleuropa, Deutschland; France, Elsass
!!!SCT: B0408
!!!YEM: Copyright 1995, estate of Helmut Schaffrath.
**kern
*ICvox
*Ivox
*M6/8
*k[]
*C:
{8g
=1
4g
8e
8cc
8b
8a
=2
4g
8e
4e}
{8e
=3
8d
8f
8a
4g
8f
=4
4.e
4r}
{8g
=5
4g
8e
8cc
8b
8a
=6
4g
8e
4e}
{8e
=7
8d
8f
8a
4g
8f
=8
4.e
4r}
{8g
=9
4f
8d
8d
8f
8a
=10
4g
8e
4e}
{8g
=11
4f
8d
8d
8f
8a
=12
4g
8e
4e}
{16g
16g
=13
8g
8a
8b
8cc
8b
8a
=14
4g
8e
4e}
{16e
16e
=15
8d
8f
8a
4g
8f
=16
4.e
4r}
==
!!!AGN: Liebes - Lied, Liebes - Lust
!!!ONB: ESAC (Essen Associative Code) Database: BOEHME
!!!AMT: compound duple
!!!AIN: vox
!!!EED: Helmut Schaffrath
!!!EEV: 1.0
*-
